X:1
T:Elmcroft, CM
T:Elmcroft, CM
T:Raymond DeWitt Mallary (1851-1911)
T:Public Domain Courtesy of the Cyber Hymnal™
C:Raymond DeWitt Mallary (1851-1911)
Z:Public Domain
Z:Courtesy of the Cyber Hymnal™
%%score ( 1 2 ) ( 3 4 )
L:1/8
M:3/4
K:E
V:1 treble 
V:2 treble 
V:3 bass 
V:4 bass 
V:1
"^Andante" [EG]2 [EA]2 [EG]2 | [DB]4 [DF]2 | [DB]4 [DF]2 | [EB]6 | [Ac]2 [EB]2 [EG]2 | %5
 [B,E]4 [DF]2 | [EG]6 | [EG]2 [EF]2 E2 | [EA]4 [EA]2 | E4 [EF]2 | [EG]6 | E2 E2 E2 | %12
 [EG]4 [DF]2 x2 | E6 |] %14
V:2
 x6 | x6 | x6 | x6 | x6 | x6 | x6 | x4 E2 | x6 | E4 x2 | x6 | E2 E2 E2 | x8 | E6 |] %14
V:3
 [E,B,]2 [E,C]2 [E,B,]2 | [E,A,]4 [E,A,]2 | [E,A,]4 [E,A,]2 | [E,G,]6 | [A,E]2 [G,B,]2 [E,B,]2 | %5
 [B,,G,]4 [B,,B,]2 | [E,B,]6 | [=D,G,]2 [D,G,]2 [D,G,]2 | [C,A,]4 [C,A,]2 | [=C,A,]4 [C,A,]2 | %10
 [B,,G,]6 | [G,B,]2 [A,=C]2 [^A,^C]2 | B,4 z2 A,2 | [E,G,]6 |] %14
V:4
 x6 | x6 | x6 | x6 | x6 | x6 | x6 | x6 | x6 | x6 | x6 | x6 | B,2 B,,4 x2 | x6 |] %14

